X: 1
T: Stambaugh Waltz
C: by Craig Hohnson
R: waltz
Z: 2020 John Chambers <jc:trillian.mit.edu>
S: https://www.facebook.com/groups/Fiddletuneoftheday/
S: https://www.facebook.com/groups/Fiddletuneoftheday/photos/
M: 3/4
L: 1/8
K: G
GA |\
B2 d2 B2 | A2 B2 A2 | G2 BG AG | E2 D2 E2 |\
G2 g3  a | g2 e2 d2 | B2 d2 B2 | A4 || GA |\
B2 d2 B2 | A2 B2 A2 | GA BG AG |
E2 G2 E2 |\
D2 G2 A2 | B3  G A2 | G3  A GF | G4 :: GA |\
B2 e2 f2 | g2 f2 e2 | d2 B2 G2 | A  B3 BA |\
B2 e2 f2 |
g2 f2 e2 | d2 B3  G | A4 || GA |\
B2 e2 f2 | g2 f2 e2 | d  B3 G2 | B4 GA |\
B3  c B2 | A2 G2 F2 | E3  F E2 | D4 :|
